X:15832
T:Splendid March,The. BF12.23
M:2/4
L:1/16
Q:90
C:Browne "C" hand
S:MS12,c1835,Browne Coll.,Lakes
R:March
O:England
A:Lakes
N:S.Qus=Semi-quaver in MS..Repeat marks are as indicated, so you can
N:make
N:up your own minds..Untitled in MS..My Title..CGP
Z:vmp.Chris Partington
K:D
DF|A2A2 A2FA|d2d2 d2Ad|f2df "S.Qus"g2f2|edef e2DF|!
A2FA d2Ad|f2df a2c'b|a2f2 edef|d6||!
fg|a2a2 a2fg|a2a2 a2a2|b2a2 g2f2|edef e2de|!
f2f2 f2de|f2f2 f2g2|f2e2 d2c2|d6::!
K:F
Q:90
AA| d2AA A2AA|e2AA A2AA|f2ff f2ff|e6AA|!
d2dd e2ee|f2ff ^f2ff|g2gg ^g2gg|a6|]
